X:1
T:Come to the Place of Prayer
T:Come to the Place of Prayer
T:The Sacred Lyre, 1859
T:Robert Turnbull (1809-1877)
T:Public Domain Courtesy of the Cyber Hymnal™
C:The Sacred Lyre, 1859
Z:Public Domain
Z:Courtesy of the Cyber Hymnal™
%%score ( 1 2 ) ( 3 4 )
L:1/8
Q:1/4=90
M:2/4
K:C
V:1 treble 
V:2 treble 
V:3 bass 
V:4 bass 
V:1
 [EG]2 [Ge]2 | !fermata![Ec]4 | [CE]3 [CE]/[CE]/ | [EG][EG] [CE] z/ [CE]/ | [B,D][CE] [DF][EG] | %5
w: 1.~Come, come|come|Come to the|place of prayer, the|day is past and|
w: ~ ~|~|2.~Yes, tune- ful|is the sound of|Christ- ians as they|
w: ~ ~|~|3.~Earth with her|dreams shall fade, our|bo- dies turn to|
 [CE]2 z [CE] | [EG][Ge] [Ge][Fd] | [Ec]2 z [EG] | [DF][DF] [CE][B,D] | [CE]2 z [CE] | %10
w: gone, And|on the si- lent|air, the|voice of praise is|borne: Sweet|
w: sing; Wel-|come the glo- ry|round, shed|from the Spir- it’s|wing; But|
w: dust; But|our souls shall soar|and~sing in~the|man- sions of the|just; So|
 [B,D]>[B,G] [B,G][B,G] | [B,G]2 z [B,G] | [DB][CA] [B,G][A,^F] | [B,G]2 z [B,G] | %14
w: is the hour of|rest, plea-|sant the heart’s low|sigh, The|
w: bliss more sweet and|still than|aught on earth e’er|gave, Our|
w: we lift our trusting|eyes from|the hills our fathers|trod, To~the|
 [DF]>[DF] [DF][DF] | [CE]2 [CE]>[CE] | D[Fd] [Ec][DB] | [Ec]4 |] %18
w: glow with- in our|breast, and the|hope be- yond the|sky.|
w: yearn- ing souls shall|fill in the|world be- yond the|grave.|
w: qui- et of the|skies, to the|Sab- bath of our|God.|
V:2
 x4 | x4 | x4 | x4 | x4 | x4 | x4 | x4 | x4 | x4 | x4 | x4 | x4 | x4 | x4 | x4 | D x3 | x4 |] %18
V:3
 [C,G,]2 [C,G,]2 | !fermata![C,G,]4 | [C,G,]3 [C,G,]/[C,G,]/ | [C,G,][C,G,] [C,G,] z/ [C,G,]/ | %4
 G,G, G,G, | [C,G,]2 z [C,G,] | [C,G,][C,G,] [C,G,][C,G,] | [C,G,]2 z [C,G,] | G,G, G,G, | %9
 [C,G,]2 z [C,G,] | G,G, G,G, | G,2 z G, | [D,G,][D,A,] [D,B,][D,A,] | G,2 z G, | G,>G, G,G, | %15
 [C,G,]2 [C,G,]>[C,G,] | [F,A,][F,A,] G,G, | [C,G,]4 |] %18
V:4
 x4 | x4 | x4 | x4 | G,G, G,G, | x4 | x4 | x4 | G,G, G,G, | x4 | G,G, G,G, | G,2 G, x | x4 | %13
 G,2 G, x | G,>G, G,G, | x4 | x2 G,G, | x4 |] %18

